Adwaita++-Light/panel/16/remote-folder-sync.svg

<svg height="16" width="16" xmlns="http://www.w3.org/2000/svg">
  <path d="m2 2s-1 0-1 1v11s0 1 1 1h12s1 0 1-1v-9c0-1-1-1-1-1h-5l-2-2z" fill="#444"/>
</svg>

<svg xmlns="http://www.w3.org/2000/svg" width="16" height="16" version="1.1">
 <defs>
  <style id="current-color-scheme" type="text/css">
   .ColorScheme-Text { color:#444444; } .ColorScheme-Highlight { color:#4285f4; }
  </style>
 </defs>
 <path style="fill:currentColor" class="ColorScheme-Text" d="M 2,2 C 2,2 1,2 1,3 V 14 C 1,14 1,15 2,15 H 14 C 14,15 15,15 15,14 V 5 C 15,4 14,4 14,4 H 9 L 7,2 Z"/>
</svg>
